modules/map-icons/icons/church.svg

<svg version="1.2" baseProfile="tiny" xmlns="http://www.w3.org/2000/svg" width="50" height="50" viewBox="0 0 50 50" overflow="inherit"><path d="M49 22.396l-23-10.88v-4.516h3v-2h-3v-4h-2v4h-3v2h3v4.516l-16.058 7.605-6.942 3.275v1.604h7v25h12v-15h10v15h12v-25h7z"/></svg>

<svg version="1.2" baseProfile="tiny" xmlns="http://www.w3.org/2000/svg" width="50" height="50" overflow="inherit"><path d="M49 22.396l-23-10.88V7h3V5h-3V1h-2v4h-3v2h3v4.516L7.942 19.121 1 22.396V24h7v25h12V34h10v15h12V24h7z"/></svg>
